www/community/platinum-weather-card/s-tropical-storm.svg

<?xml version="1.0" encoding="UTF-8"?>
<!-- Tropical Storm | Contributed by hsoJ95 on GitHub: https://github.com/hsoj95 -->
<svg version="1.1" xmlns="http://www.w3.org/2000/svg" xmlns:xlink="http://www.w3.org/1999/xlink" width="64" height="64" viewbox="0 0 64 64">
    <defs>
        <filter id="blur" width="200%" height="200%">
            <feGaussianBlur in="SourceAlpha" stdDeviation="3" />
            <feOffset dx="0" dy="4" result="offsetblur" />
            <feComponentTransfer>
                <feFuncA type="linear" slope="0.05" />
            </feComponentTransfer>
            <feMerge>
                <feMergeNode/>
                <feMergeNode in="SourceGraphic" />
            </feMerge>
        </filter>
    </defs>
    <g id="storm" stroke="none" stroke-width="1" fill="none" fill-rule="evenodd">
        <g transform="translate(20, 20)" fill-rule="nonzero" fill="#cc0000">
            <path d="M18.4780225,0.0917014924 C17.8610337,0.124656716 17.6025168,0.144537314 17.1790562,0.189402985 C14.4874607,0.477313432 11.9145168,1.34641791 9.82489882,2.67107462 C7.82022472,3.9416418 6.28017979,5.61770148 5.37591012,7.51289554 C4.72638203,8.87462685 4.40044942,10.2878508 4.34049439,11.9995523 C4.33051684,12.2781492 4.34049439,12.8949851 4.3579326,13.1261195 C4.45788765,14.4283881 4.78139325,15.4968358 5.3971236,16.5521195 C5.50705617,16.7409851 5.75182023,17.121403 5.97914606,17.4581195 C6.62993258,18.4182985 6.77851684,18.7709553 6.75856181,19.3058508 C6.74858426,19.5925075 6.6799101,19.8328657 6.50624719,20.1920597 C6.295191,20.6266567 6.02912359,21.0017015 5.6719101,21.3702089 C4.87505618,22.190418 3.76719101,22.7622985 2.31460674,23.1030447 C1.66885393,23.2549254 0.768269662,23.3684776 0.212494381,23.3684776 C0.0987865171,23.3684776 0.00386516854,23.3737612 0.000179775281,23.3790447 C-0.0123146068,23.4001791 0.760808988,23.5758805 1.2915955,23.6709851 C2.07101124,23.8122985 2.73546067,23.892806 3.62732584,23.9522686 C3.97698877,23.976 5.4895281,23.976 5.83802246,23.9522686 C7.36305619,23.8492836 8.64458426,23.6326567 9.95352806,23.2549254 C11.5847191,22.7846866 13.1310562,22.0794627 14.4249888,21.2156418 C16.7057078,19.6954925 18.3082247,17.6853134 19.0838652,15.3713731 C19.373573,14.5076418 19.536,13.6465075 19.6221124,12.5053433 C19.6483596,12.1659403 19.6521348,11.3140299 19.6296629,10.9997015 C19.5334832,9.67101494 19.2237303,8.62101492 18.6179775,7.56573135 C18.4655281,7.30029852 18.2482696,6.96089554 17.9409439,6.50919401 C17.4139326,5.73385076 17.2402696,5.34555225 17.2203146,4.8965373 C17.2053034,4.58220897 17.2739775,4.29429852 17.457618,3.90734329 C17.8523147,3.0699403 18.5180225,2.35934328 19.4085394,1.82713433 C20.5264719,1.15746269 22.0902471,0.74283582 23.7276404,0.683373135 C23.8625618,0.678089554 23.9724944,0.671462685 23.9699775,0.670119401 C23.96,0.659552239 23.521618,0.556567163 23.1981124,0.487880599 C22.4936629,0.338686567 21.7104719,0.221104477 20.9947865,0.156358209 C20.4027865,0.103522388 20.1829213,0.0942985076 19.371146,0.090358209 C18.9252135,0.0890149253 18.5230562,0.0890149253 18.4780225,0.0917014924 L18.4780225,0.0917014924 Z M12.5014832,9.5878209 C13.1734832,9.69080602 13.7917304,10.1266567 14.1465168,10.7501195 C14.3738427,11.1489851 14.4824269,11.5596716 14.4824269,12.0299104 C14.4824269,12.6994925 14.246382,13.3030746 13.8005393,13.7733134 C13.4395505,14.1563284 13.0086292,14.3874627 12.4952809,14.4732538 C12.319191,14.5036119 11.971955,14.5036119 11.8020674,14.4732538 C11.2837753,14.3834328 10.8541123,14.1536418 10.4980674,13.778597 C10.1396854,13.3995224 9.9147865,12.9280299 9.83361802,12.3798805 C9.81114605,12.2332836 9.81114605,11.8265373 9.83361802,11.6798508 C9.9147865,11.1317911 10.1408539,10.6576119 10.4980674,10.2812239 C11.0264269,9.72385075 11.7508315,9.47426865 12.5014832,9.5878209 L12.5014832,9.5878209 Z"></path>
        </g>
    </g>
</svg>

<?xml version="1.0" encoding="UTF-8"?>
<!-- Tropical Storm | Contributed by hsoJ95 on GitHub: https://github.com/hsoj95 -->
<svg width="56" height="48" version="1.1" xmlns="http://www.w3.org/2000/svg">
  <defs>
    <filter id="blur" x="-.16995" y="-.17864" width="1.3289" height="1.455">
      <feGaussianBlur in="SourceAlpha" stdDeviation="3" />
      <feOffset dx="0" dy="4" result="offsetblur" />
      <feComponentTransfer>
        <feFuncA slope="0.05" type="linear" />
      </feComponentTransfer>
      <feMerge>
        <feMergeNode />
        <feMergeNode in="SourceGraphic" />
      </feMerge>
    </filter>
  </defs>
  <g transform="translate(16 -2)" filter="url(#blur)">
    <g class="am-weather-cyclone" transform="translate(0,10)" fill="#c00" fill-rule="nonzero">
      <path
        d="m18.478 0.091701c-0.61699 0.032955-0.87551 0.052836-1.299 0.097701-2.6916 0.28791-5.2645 1.157-7.3542 2.4817-2.0047 1.2706-3.5447 2.9466-4.449 4.8418-0.64953 1.3617-0.97546 2.775-1.0354 4.4867-0.00998 0.2786 0 0.89543 0.017438 1.1266 0.099955 1.3023 0.42346 2.3707 1.0392 3.426 0.10993 0.18887 0.3547 0.56928 0.58202 0.906 0.65079 0.96018 0.79937 1.3128 0.77942 1.8477-0.00998 0.28666-0.078652 0.52701-0.25231 0.88621-0.21106 0.4346-0.47712 0.80964-0.83434 1.1781-0.79685 0.82021-1.9047 1.3921-3.3573 1.7328-0.64575 0.15188-1.5463 0.26543-2.1021 0.26543-0.11371 0-0.20863 0.0053-0.21231 0.01057-0.012494 0.02113 0.76063 0.19684 1.2914 0.29194 0.77942 0.14131 1.4439 0.22182 2.3357 0.28128 0.34966 0.02373 1.8622 0.02373 2.2107 0 1.525-0.10298 2.8066-0.31961 4.1155-0.69734 1.6312-0.47024 3.1775-1.1755 4.4715-2.0393 2.2807-1.5201 3.8832-3.5303 4.6589-5.8443 0.28971-0.86373 0.45213-1.7249 0.53825-2.866 0.02625-0.3394 0.03002-1.1913 0.0076-1.5056-0.09618-1.3287-0.40593-2.3787-1.0117-3.434-0.15245-0.26543-0.36971-0.60484-0.67703-1.0565-0.52701-0.77534-0.70067-1.1636-0.72063-1.6127-0.01501-0.31433 0.05366-0.60224 0.2373-0.98919 0.3947-0.8374 1.0604-1.548 1.9509-2.0802 1.1179-0.66967 2.6817-1.0843 4.3191-1.1438 0.13492-0.005284 0.24485-0.01191 0.24234-0.013254-0.01-0.010567-0.44836-0.11355-0.77187-0.18224-0.70445-0.14919-1.4876-0.26678-2.2033-0.33152-0.592-0.052836-0.81187-0.06206-1.6236-0.066-0.44593-0.0013433-0.84809-0.0013433-0.89312 0.0013433zm-5.9765 9.4961c0.672 0.10299 1.2902 0.53884 1.645 1.1623 0.22733 0.39887 0.33591 0.80955 0.33591 1.2798 0 0.66958-0.23604 1.2732-0.68189 1.7434-0.36099 0.38302-0.79191 0.61415-1.3053 0.69994-0.17609 0.03036-0.52333 0.03036-0.69321 0-0.51829-0.08982-0.94796-0.31961-1.304-0.69466-0.35838-0.37907-0.58328-0.85057-0.66445-1.3987-0.022472-0.1466-0.022472-0.55334 0-0.70003 0.081168-0.54806 0.30724-1.0222 0.66445-1.3986 0.52836-0.55737 1.2528-0.80696 2.0034-0.6934z" />
    </g>
    <g class="warning" transform="translate(20,30)">
      <path
        d="m7.7791 2.906-5.9912 10.117c-0.56283 0.95042-0.24862 2.1772 0.7018 2.74 0.30853 0.18271 0.66051 0.27911 1.0191 0.27911h11.982c1.1046 0 2-0.89543 2-2 0-0.35857-0.0964-0.71056-0.27911-1.0191l-5.9912-10.117c-0.56283-0.95042-1.7896-1.2646-2.74-0.7018-0.28918 0.17125-0.53055 0.41262-0.7018 0.7018z"
        fill="#c00" />
      <path d="m9.5 10.5v-5" stroke="#fff" stroke-linecap="round" stroke-width="1.5" />
      <circle cx="9.5" cy="13" r="1" fill="#fff" />
    </g>
  </g>
</svg>
